X:42
T:Kingsbury Reel
C:George Wilson?
S:Bernie Waugh
R:Reel
M:4/4
L:1/8
K:D
|:(3ABc|\
"D"d2 fed2fg|afbf "A"afef|"D"d2fe defd|"G"gfed "A"cABc|
"D"d2fed2fg|afbf "A"afef|"G"gfga "A"bgec|"D"d2f2d2:|
|:^e2|\
"D"f2fg fedc|"Bm"BABc BAGF|"Em"E2ef edcB|"A"ABAG FEDE|
"Bm"F2FG FEDE|FAdf"G"g4|"D"fgaf "A7"bgec|"D"d2f2d2:|

